X: 41685
T: Ushtey Millish 'sy Garee
R: reel
M: 4/4
K: Dmajor
D2|F2 F2 D2 D2|F2 G2 A2 A2|G2 F2 D2 D2|D6 A2|
d2 d2 B2 d2|c2 A2 G2 F2|E4 F2 G2|A6 A2|
d2 d2 B2 d2|c2 A2 F2 E2|D2 D2 d2 B2|A6 FE|
D2 D2 E2 F2|G2 B2 A2 A2|E2 D2 D2 D2|D6||

